X: 43
T:On The Road To Boston
% Nottingham Music Database
S:via PR
M:2/4
L:1/4
K:D
A/2|"D"f f/2e/4f/4|"G"g/2f/2 e/2d/2|"A7"c/2d/2 e/2f/2|"D"d/2A/2 F/2A/2|\
"D"f f/2e/4f/4|"G"g/2f/2 e/2d/2|"A7"c/2d/2 e/2f/2|"D"d d/2::
f/4g/4|"D"a a/2g/4a/4|"G"b/2a/2 g/2f/2|"A7"g g/2f/4g/4|"D"a/2g/2 f/2e/2|\
"D""(Bm)"f f/2e/4f/4|"G""(Em)"g/2f/2 e/2d/2|"A7"c/2d/2 e/2f/2|"D"d d/2:|


